X:415
T: Lannamacree
T: Leanbh Mo Chro\'i
T: Jackson's Babes
T: Rose in Full Bloom
S: B.Breathnach:"Ceol Rince na hEireann" IV/10
Z: B.Black
N: No repeats
L: 1/8
M: 6/8
R: jig
K: G
f|gdc BAG|Bdd def|gdc BAG|EAA A2f|
gdc BAG|Bdd edc|BGB cAG|FDD D2 ||
c|BGG DGG|BGG G2A|BGG DGG|cAG F2A|
BGG DGG|BGG G2A|Bc/d/B cAG|FDD D2 ||
